X:1
T:Red Haired Boy
M:C|
L:1\8
K:A
"A"EFA(B AB)cd | efec "D"dAcd | "A" eAce ABcA | "G" BAEF =GFED |!
"A"EFA(B AB)cd | efec "D"dAcd |"A" e2 ab a=ged |1"E" c2 A2 "A"A2 A=G:|2"E" c2 A2 "A"A2 e(f|]!
"G"=gf)e(f gf)e(f |=gf)ec "D"d2 cd | "A" eAce ABcA | "G" BAEF =GFED|!
"A"EA2B A2cd | efec "D"dAcd |"A" e2 ab a=ged |1"E" c2 A2 "A"A2 e(f:|2"E"c2A2 "A"A4|]!
